;Generated with Cura_SteamEngine 14_06
; Default start code
G28 ; Home extruder
G1 Z15 F200
M107 ; Turn off fan
G90 ; Absolute positioning
M82 ; Extruder in absolute mode
M190 S50
; Activate all used extruder
M104 T0 S210
G92 E0 ; Reset extruder position
; Wait for all used extruders to reach temperature
M109 T0 S210
;Layer count: 125
;LAYER:0
M107
G0 F9000 X105.31 Y123.96 Z0.30
;TYPE:SKIRT
G1 F1800 X108.37 Y121.74 E0.18892
G1 X111.51 Y120.33 E0.36052
G1 X111.83 Y120.18 E0.37810
G1 X115.18 Y119.47 E0.54921
G1 X115.55 Y119.38 E0.56825
G1 X119.40 Y119.38 E0.76032
G1 X122.77 Y120.10 E0.93200
G1 X123.14 Y120.18 E0.95107
G1 X126.58 Y121.71 E1.13894
G1 X129.66 Y123.94 E1.32882
G1 X132.00 Y126.53 E1.50243
G1 X132.24 Y126.80 E1.52059
G1 X133.94 Y129.75 E1.69064
G1 X134.14 Y130.07 E1.70954
G1 X135.20 Y133.34 E1.88112
G1 X135.32 Y133.70 E1.89979
G1 X135.67 Y137.09 E2.07004
G1 X135.72 Y137.48 E2.08924
G1 X135.32 Y141.29 E2.28042
G1 X134.14 Y144.91 E2.47047
G1 X132.24 Y148.21 E2.66042
G1 X129.69 Y151.04 E2.85044
G1 X126.61 Y153.28 E3.04045
G1 X123.13 Y154.82 E3.23047
G1 X119.40 Y155.62 E3.42051
G1 X115.60 Y155.62 E3.61045
G1 X111.87 Y154.82 E3.80049
G1 X108.39 Y153.28 E3.99042
G1 X105.31 Y151.04 E4.18051
G1 X102.76 Y148.21 E4.37053
G1 X100.86 Y144.91 E4.56048
G1 X99.68 Y141.29 E4.75053
G1 X99.28 Y137.50 E4.94051
G1 X99.64 Y134.05 E5.11362
G1 X99.69 Y133.69 E5.13166
G1 X100.75 Y130.42 E5.30308
G1 X100.86 Y130.08 E5.32113
G1 X102.75 Y126.82 E5.50908
G1 X105.06 Y124.23 E5.68216
G1 X105.31 Y123.96 E5.70025
G0 F9000 X139.68 Y133.71
G1 F1800 X140.66 Y130.71 E5.85778
G1 X140.86 Y130.09 E5.89019
G1 X142.76 Y126.79 E6.08020
G1 X144.87 Y124.44 E6.23776
G1 X145.31 Y123.96 E6.27012
G1 X147.87 Y122.10 E6.42789
G1 X148.39 Y121.72 E6.46022
G1 X151.27 Y120.44 E6.61770
G1 X151.27 Y120.44 E6.61775
G1 X151.87 Y120.17 E6.65024
G1 X154.95 Y119.52 E6.80748
G1 X154.95 Y119.52 E6.80752
G1 X155.59 Y119.38 E6.84018
G1 X159.40 Y119.38 E7.03031
G1 X162.50 Y120.04 E7.18806
G1 X163.13 Y120.17 E7.22051
G1 X166.01 Y121.46 E7.37794
G1 X166.61 Y121.72 E7.41039
G1 X169.16 Y123.58 E7.56799
G1 X169.69 Y123.96 E7.60045
G1 X171.81 Y126.31 E7.75807
G1 X172.24 Y126.79 E7.79051
G1 X174.14 Y130.09 E7.98034
G1 X175.12 Y133.09 E8.13799
G1 X175.32 Y133.71 E8.17044
G1 X175.65 Y136.85 E8.32786
G1 X175.72 Y137.50 E8.36037
G1 X175.32 Y141.29 E8.55040
G1 X174.14 Y144.91 E8.74045
G1 X172.24 Y148.21 E8.93040
G1 X169.69 Y151.04 E9.12042
G1 X166.61 Y153.28 E9.31043
G1 X163.13 Y154.82 E9.50045
G1 X159.40 Y155.62 E9.69050
G1 X155.60 Y155.62 E9.88043
G1 X151.87 Y154.82 E10.07047
G1 X148.39 Y153.28 E10.26040
G1 X145.31 Y151.04 E10.45050
G1 X142.76 Y148.21 E10.64052
G1 X140.86 Y144.91 E10.83046
G1 X139.68 Y141.29 E11.02051
G1 X139.28 Y137.50 E11.21049
G1 X139.61 Y134.36 E11.36811
G1 X139.68 Y133.71 E11.40056
G1 F2400 E7.40056
G0 F9000 X131.58 Y134.51
;TYPE:WALL-INNER
G1 F2400 E11.40056
G1 F1800 X131.90 Y137.50 E11.55065
G1 X131.58 Y140.49 E11.70084
G1 X130.65 Y143.35 E11.85098
G1 X129.15 Y145.96 E12.00130
G1 X128.61 Y146.56 E12.04139
G1 X128.80 Y145.97 E12.07255
G1 X128.84 Y145.84 E12.07902
G1 X128.84 Y144.71 E12.13544
G1 X128.49 Y143.64 E12.19174
G1 X127.83 Y142.73 E12.24807
G1 X126.92 Y142.06 E12.30433
G1 X125.84 Y141.72 E12.36067
G1 X124.71 Y141.72 E12.41700
G1 X123.64 Y142.06 E12.47329
G1 X122.73 Y142.73 E12.52960
G1 X122.06 Y143.64 E12.58590
G1 X121.72 Y144.71 E12.64219
G1 X121.72 Y145.84 E12.69852
G1 X122.03 Y146.80 E12.74861
G1 X122.06 Y146.92 E12.75497
G1 X122.65 Y147.73 E12.80480
G1 X122.73 Y147.83 E12.81115
G1 X123.54 Y148.42 E12.86102
G1 X123.64 Y148.49 E12.86741
G1 X124.59 Y148.80 E12.91745
G1 X124.71 Y148.84 E12.92365
G1 X125.84 Y148.84 E12.98008
G1 X126.58 Y148.60 E13.01868
G1 X124.70 Y149.97 E13.13462
G1 X121.95 Y151.19 E13.28468
G1 X119.00 Y151.82 E13.43499
G1 X116.00 Y151.82 E13.58501
G1 X113.05 Y151.19 E13.73532
G1 X110.30 Y149.97 E13.88538
G1 X108.42 Y148.60 E14.00136
G1 X109.04 Y148.80 E14.03372
G1 X109.16 Y148.84 E14.03992
G1 X110.29 Y148.84 E14.09634
G1 X111.24 Y148.53 E14.14644
G1 X111.36 Y148.49 E14.15275
G1 X112.17 Y147.90 E14.20264
G1 X112.27 Y147.83 E14.20900
G1 X112.86 Y147.02 E14.25894
G1 X112.94 Y146.92 E14.26522
G1 X113.24 Y145.97 E14.31500
G1 X113.28 Y145.84 E14.32147
G1 X113.28 Y144.71 E14.37789
G1 X112.94 Y143.64 E14.43419
G1 X112.27 Y142.73 E14.49049
G1 X111.36 Y142.06 E14.54679
G1 X110.29 Y141.72 E14.60309
G1 X109.16 Y141.72 E14.65941
G1 X108.08 Y142.06 E14.71575
G1 X107.17 Y142.73 E14.77202
G1 X106.51 Y143.64 E14.82835
G1 X106.16 Y144.71 E14.88464
G1 X106.16 Y145.84 E14.94097
G1 X106.39 Y146.56 E14.97868
G1 X105.85 Y145.96 E15.01874
G1 X104.35 Y143.35 E15.16905
G1 X103.42 Y140.49 E15.31917
G1 X103.10 Y137.50 E15.46936
G1 X103.42 Y134.51 E15.61940
G1 X104.35 Y131.65 E15.76958
G1 X105.84 Y129.06 E15.91849
G1 X106.39 Y128.45 E15.95951
G1 X106.16 Y129.16 E15.99669
G1 X106.16 Y130.29 E16.05302
G1 X106.47 Y131.24 E16.10311
G1 X106.51 Y131.36 E16.10942
G1 X107.10 Y132.17 E16.15932
G1 X107.17 Y132.27 E16.16568
G1 X107.98 Y132.86 E16.21561
G1 X108.08 Y132.94 E16.22190
G1 X109.04 Y133.25 E16.27194
G1 X109.16 Y133.28 E16.27814
G1 X110.29 Y133.28 E16.33457
G1 X111.24 Y132.97 E16.38466
G1 X111.36 Y132.93 E16.39093
G1 X112.17 Y132.35 E16.44083
G1 X112.27 Y132.27 E16.44719
G1 X112.86 Y131.46 E16.49717
G1 X112.94 Y131.36 E16.50341
G1 X113.24 Y130.41 E16.55319
G1 X113.28 Y130.29 E16.55966
G1 X113.28 Y129.16 E16.61608
G1 X112.94 Y128.08 E16.67242
G1 X112.27 Y127.17 E16.72869
G1 X111.36 Y126.51 E16.78502
G1 X110.29 Y126.16 E16.84131
G1 X109.16 Y126.16 E16.89764
G1 X108.42 Y126.40 E16.93629
G1 X110.28 Y125.05 E17.05091
G1 X113.06 Y123.81 E17.20260
G1 X116.00 Y123.18 E17.35265
G1 X119.00 Y123.18 E17.50262
G1 X121.95 Y123.81 E17.65282
G1 X124.67 Y125.02 E17.80172
G1 X126.58 Y126.40 E17.91876
G1 X125.84 Y126.16 E17.95721
G1 X124.71 Y126.16 E18.01354
G1 X123.64 Y126.51 E18.06983
G1 X122.73 Y127.17 E18.12616
G1 X122.06 Y128.08 E18.18243
G1 X121.72 Y129.16 E18.23877
G1 X121.72 Y130.29 E18.29509
G1 X122.03 Y131.24 E18.34518
G1 X122.06 Y131.36 E18.35145
G1 X122.65 Y132.17 E18.40135
G1 X122.73 Y132.27 E18.40771
G1 X123.54 Y132.86 E18.45769
G1 X123.64 Y132.94 E18.46393
G1 X124.59 Y133.25 E18.51398
G1 X124.71 Y133.28 E18.52018
G1 X125.84 Y133.28 E18.57661
G1 X126.80 Y132.97 E18.62670
G1 X126.92 Y132.93 E18.63306
G1 X127.73 Y132.35 E18.68288
G1 X127.83 Y132.27 E18.68924
G1 X128.42 Y131.46 E18.73911
G1 X128.49 Y131.36 E18.74549
G1 X128.80 Y130.41 E18.79527
G1 X128.84 Y130.29 E18.80174
G1 X128.84 Y129.16 E18.85816
G1 X128.61 Y128.44 E18.89573
G1 X129.15 Y129.03 E18.93568
G1 X130.65 Y131.64 E19.08600
G1 X131.58 Y134.51 E19.23618
G0 F9000 X124.29 Y135.41
G1 F1800 X123.37 Y133.50 E19.34190
G1 X121.93 Y131.94 E19.44756
G1 X120.10 Y130.88 E19.55324
G1 X118.03 Y130.41 E19.65896
G1 X115.92 Y130.57 E19.76462
G1 X113.95 Y131.34 E19.87028
G1 X112.29 Y132.66 E19.97597
G1 X111.10 Y134.42 E20.08171
G1 X110.47 Y136.44 E20.18742
G1 X110.47 Y138.56 E20.29304
G1 X111.04 Y140.41 E20.38946
G1 X111.10 Y140.58 E20.39882
G1 X112.18 Y142.18 E20.49507
G1 X112.29 Y142.33 E20.50444
G1 X113.80 Y143.54 E20.60068
G1 X113.95 Y143.65 E20.61013
G1 X115.74 Y144.36 E20.70645
G1 X115.92 Y144.43 E20.71579
G1 X117.84 Y144.57 E20.81194
G1 X118.03 Y144.59 E20.82140
G1 X119.91 Y144.16 E20.91786
G1 X120.10 Y144.11 E20.92724
G1 X121.77 Y143.15 E21.02360
G1 X121.93 Y143.05 E21.03297
G1 X123.37 Y141.50 E21.13855
G1 X124.21 Y139.76 E21.23491
G1 X124.29 Y139.60 E21.24419
G1 X124.58 Y137.69 E21.34039
G1 X124.61 Y137.50 E21.34984
G1 X124.29 Y135.41 E21.45564
G0 F9000 X123.90 Y135.52
;TYPE:WALL-OUTER
G1 F1800 X123.04 Y133.72 E21.55532
G1 X121.68 Y132.26 E21.65498
G1 X119.95 Y131.26 E21.75464
G1 X118.00 Y130.82 E21.85433
G1 X116.01 Y130.97 E21.95399
G1 X114.15 Y131.69 E22.05363
G1 X112.59 Y132.94 E22.15329
G1 X111.46 Y134.59 E22.25299
G1 X110.87 Y136.50 E22.35271
G1 X110.87 Y138.50 E22.45234
G1 X111.46 Y140.41 E22.55206
G1 X112.59 Y142.06 E22.65176
G1 X114.15 Y143.30 E22.75141
G1 X116.01 Y144.03 E22.85105
G1 X117.87 Y144.17 E22.94430
G1 X118.00 Y144.18 E22.95066
G1 X119.95 Y143.74 E23.05040
G1 X121.68 Y142.74 E23.15007
G1 X123.04 Y141.28 E23.24972
G1 X123.85 Y139.59 E23.34297
G1 X123.90 Y139.47 E23.34940
G1 X124.18 Y137.63 E23.44264
G1 X124.20 Y137.50 E23.44900
G1 X123.90 Y135.52 E23.54875
G0 F9000 X124.17 Y135.40
G0 X124.68 Y133.17
G0 X124.78 Y132.88
G1 F1800 X125.78 Y132.88 E23.59879
G1 X126.67 Y132.59 E23.64563
G1 X126.73 Y132.57 E23.64883
G1 X127.54 Y131.99 E23.69873
G1 X128.13 Y131.18 E23.74873
G1 X128.42 Y130.28 E23.79548
G1 X128.44 Y130.22 E23.79868
G1 X128.44 Y129.22 E23.84872
G1 X128.13 Y128.27 E23.89872
G1 X127.54 Y127.46 E23.94869
G1 X126.73 Y126.87 E23.99865
G1 X125.78 Y126.56 E24.04865
G1 X124.78 Y126.56 E24.09869
G1 X123.82 Y126.87 E24.14864
G1 X123.01 Y127.46 E24.19865
G1 X122.42 Y128.27 E24.24858
G1 X122.11 Y129.22 E24.29858
G1 X122.11 Y130.22 E24.34862
G1 X122.41 Y131.12 E24.39546
G1 X122.42 Y131.18 E24.39857
G1 X123.01 Y131.99 E24.44855
G1 X123.82 Y132.57 E24.49852
G1 X124.72 Y132.86 E24.54527
G1 X124.78 Y132.88 E24.54847
G0 F9000 X124.68 Y133.17
G0 X125.84 Y133.28
G0 X127.83 Y132.27
G0 X128.84 Y130.29
G0 X129.23 Y128.98
G0 X129.47 Y128.80
G1 F1800 X131.02 Y131.48 E24.70263
G1 X131.97 Y134.42 E24.85703
G1 X132.30 Y137.50 E25.01139
G1 X131.97 Y140.58 E25.16589
G1 X131.02 Y143.52 E25.32022
G1 X129.47 Y146.20 E25.47443
G1 X127.40 Y148.50 E25.62891
G1 X124.90 Y150.32 E25.78332
G1 X122.07 Y151.57 E25.93753
G1 X119.04 Y152.22 E26.09208
G1 X115.95 Y152.22 E26.24619
G1 X112.92 Y151.57 E26.40073
G1 X110.10 Y150.32 E26.55490
G1 X107.60 Y148.50 E26.70935
G1 X105.53 Y146.20 E26.86383
G1 X103.98 Y143.52 E27.01804
G1 X103.02 Y140.58 E27.17237
G1 X102.70 Y137.50 E27.32672
G1 X103.02 Y134.43 E27.48073
G1 X103.02 Y134.42 E27.48123
G1 X103.98 Y131.49 E27.63520
G1 X105.51 Y128.82 E27.78839
G1 X107.60 Y126.50 E27.94412
G1 X110.08 Y124.70 E28.09717
G1 X112.92 Y123.43 E28.25270
G1 X115.95 Y122.78 E28.40704
G1 X119.04 Y122.78 E28.56135
G1 X122.05 Y123.42 E28.71457
G1 X122.07 Y123.42 E28.71568
G1 X124.88 Y124.67 E28.86901
G1 X127.38 Y126.49 E29.02327
G1 X129.47 Y128.80 E29.17883
G0 F9000 X129.23 Y128.98
G0 X125.87 Y141.83
G0 X125.78 Y142.12
G1 F1800 X124.78 Y142.12 E29.22887
G1 X123.82 Y142.43 E29.27882
G1 X123.01 Y143.01 E29.32880
G1 X122.42 Y143.82 E29.37878
G1 X122.11 Y144.78 E29.42873
G1 X122.11 Y145.78 E29.47877
G1 X122.41 Y146.67 E29.52561
G1 X122.42 Y146.73 E29.52881
G1 X123.01 Y147.54 E29.57871
G1 X123.82 Y148.13 E29.62871
G1 X124.72 Y148.42 E29.67546
G1 X124.78 Y148.44 E29.67866
G1 X125.78 Y148.44 E29.72870
G1 X126.67 Y148.15 E29.77555
G1 X126.73 Y148.13 E29.77875
G1 X127.54 Y147.54 E29.82867
G1 X128.13 Y146.73 E29.87864
G1 X128.42 Y145.84 E29.92543
G1 X128.44 Y145.78 E29.92864
G1 X128.44 Y144.78 E29.97868
G1 X128.13 Y143.82 E30.02863
G1 X127.54 Y143.01 E30.07863
G1 X126.73 Y142.43 E30.12857
G1 X125.78 Y142.12 E30.17857
G0 F9000 X125.87 Y141.83
G0 X124.71 Y141.72
G0 X119.91 Y144.16
G0 X117.84 Y144.57
G0 X113.18 Y144.78
G0 X112.88 Y144.78
G1 F1800 X112.57 Y143.82 E30.22852
G1 X111.99 Y143.01 E30.27849
G1 X111.17 Y142.43 E30.32847
G1 X110.22 Y142.12 E30.37842
G1 X109.22 Y142.12 E30.42846
G1 X108.27 Y142.43 E30.47846
G1 X107.46 Y143.01 E30.52839
G1 X106.87 Y143.82 E30.57840
G1 X106.56 Y144.78 E30.62835
G1 X106.56 Y145.78 E30.67839
G1 X106.85 Y146.67 E30.72523
G1 X106.87 Y146.73 E30.72843
G1 X107.46 Y147.54 E30.77836
G1 X108.27 Y148.13 E30.82833
G1 X109.16 Y148.42 E30.87512
G1 X109.22 Y148.44 E30.87832
G1 X110.22 Y148.44 E30.92836
G1 X111.12 Y148.15 E30.97520
G1 X111.18 Y148.13 E30.97836
G1 X111.99 Y147.54 E31.02833
G1 X112.57 Y146.73 E31.07826
G1 X112.86 Y145.84 E31.12506
G1 X112.88 Y145.78 E31.12826
G1 X112.88 Y144.78 E31.17830
G0 F9000 X113.18 Y144.78
G0 X112.29 Y142.33
G0 X111.04 Y140.40
G0 X110.47 Y138.56
G0 X110.47 Y136.44
G0 X110.22 Y133.18
G0 X110.22 Y132.88
G1 F1800 X111.12 Y132.59 E31.22514
G1 X111.17 Y132.57 E31.22825
G1 X111.99 Y131.99 E31.27823
G1 X112.57 Y131.18 E31.32820
G1 X112.86 Y130.28 E31.37495
G1 X112.88 Y130.22 E31.37815
G1 X112.88 Y129.22 E31.42819
G1 X112.57 Y128.27 E31.47819
G1 X111.99 Y127.46 E31.52813
G1 X111.17 Y126.87 E31.57813
G1 X110.22 Y126.56 E31.62808
G1 X109.22 Y126.56 E31.67812
G1 X108.27 Y126.87 E31.72812
G1 X107.46 Y127.46 E31.77809
G1 X106.87 Y128.27 E31.82805
G1 X106.56 Y129.22 E31.87805
G1 X106.56 Y130.22 E31.92809
G1 X106.85 Y131.12 E31.97493
G1 X106.87 Y131.18 E31.97809
G1 X107.46 Y131.99 E32.02805
G1 X108.27 Y132.57 E32.07799
G1 X109.16 Y132.86 E32.12478
G1 X109.22 Y132.88 E32.12799
G1 X110.22 Y132.88 E32.17803
G0 F9000 X110.46 Y133.37
;TYPE:FILL
G1 F1800 X111.16 Y134.07 E32.22738
G0 F9000 X111.39 Y133.74
G1 F1800 X111.10 Y133.16 E32.26274
G1 X111.73 Y133.23 E32.28414
G1 X111.83 Y132.76 E32.29674
G1 X112.08 Y132.73 E32.30915
G0 F9000 X112.67 Y132.18
G1 F1800 X112.69 Y131.93 E32.31564
G1 X113.14 Y131.81 E32.32755
G1 X113.12 Y131.22 E32.34476
G1 X113.61 Y131.43 E32.37129
G0 F9000 X113.94 Y131.19
G1 F1800 X113.33 Y130.59 E32.41426
G0 F9000 X113.42 Y130.11
G1 F1800 X114.35 Y131.03 E32.47946
G0 F9000 X114.75 Y130.88
G1 F1800 X113.42 Y129.54 E32.57337
G0 F9000 X113.35 Y128.91
G1 F1800 X115.16 Y130.72 E32.70111
G0 F9000 X115.56 Y130.56
G1 F1800 X113.08 Y128.07 E32.87665
G0 F9000 X111.37 Y126.36
G1 F1800 X110.25 Y125.24 E32.95578
G0 F9000 X109.92 Y125.48
G1 F1800 X110.53 Y126.09 E32.99889
G0 F9000 X109.89 Y126.02
G1 F1800 X109.59 Y125.72 E33.02005
G0 F9000 X110.62 Y125.05
G1 F1800 X116.00 Y130.42 E33.39922
G0 F9000 X116.52 Y130.38
G1 F1800 X111.01 Y124.87 E33.78791
G0 F9000 X111.41 Y124.70
G1 F1800 X117.05 Y130.34 E34.18619
G0 F9000 X117.58 Y130.30
G1 F1800 X111.80 Y124.52 E34.59404
G0 F9000 X112.19 Y124.35
G1 F1800 X118.13 Y130.29 E35.01314
G0 F9000 X118.86 Y130.46
G1 F1800 X112.58 Y124.17 E35.45633
G0 F9000 X112.97 Y124.00
G1 F1800 X119.59 Y130.62 E35.92369
G0 F9000 X120.48 Y130.94
G1 F1800 X113.41 Y123.88 E36.42227
G0 F9000 X113.88 Y123.78
G1 F1800 X121.82 Y131.72 E36.98241
G0 F9000 X121.87 Y131.20
G1 F1800 X114.34 Y123.68 E37.51320
G0 F9000 X114.81 Y123.58
G1 F1800 X121.59 Y130.36 E37.99170
G0 F9000 X121.57 Y129.78
G1 F1800 X115.28 Y123.48 E38.43606
G0 F9000 X115.74 Y123.38
G1 F1800 X121.57 Y129.21 E38.84754
G0 F9000 X121.69 Y128.77
G1 F1800 X116.25 Y123.32 E39.23171
G0 F9000 X116.82 Y123.32
G1 F1800 X121.83 Y128.34 E39.58576
G0 F9000 X122.00 Y127.94
G1 F1800 X117.38 Y123.32 E39.91144
G0 F9000 X117.95 Y123.32
G1 F1800 X122.23 Y127.61 E40.21399
G0 F9000 X122.47 Y127.28
G1 F1800 X118.51 Y123.32 E40.49339
G0 F9000 X119.10 Y123.35
G1 F1800 X122.74 Y126.98 E40.75003
G0 F9000 X123.07 Y126.75
G1 F1800 X119.82 Y123.50 E40.97912
G0 F9000 X120.54 Y123.65
G1 F1800 X123.40 Y126.51 E41.18074
G0 F9000 X123.77 Y126.32
G1 F1800 X121.26 Y123.80 E41.35804
G0 F9000 X122.00 Y123.98
G1 F1800 X124.20 Y126.18 E41.51270
G0 F9000 X124.62 Y126.04
G1 F1800 X123.02 Y124.44 E41.62559
G0 F9000 X124.04 Y124.89
G1 F1800 X125.17 Y126.02 E41.70500
G0 F9000 X125.52 Y125.80
G1 F1800 X125.69 Y125.97 E41.71675
G0 F9000 X126.91 Y126.51
G0 X128.49 Y128.09
G0 X128.98 Y129.26
G1 F1800 X129.30 Y129.59 E41.73939
G0 F9000 X128.98 Y129.83
G1 F1800 X130.07 Y130.92 E41.81662
G0 F9000 X128.96 Y130.37
G1 F1800 X130.64 Y132.05 E41.93497
G0 F9000 X130.91 Y132.89
G1 F1800 X128.82 Y130.80 E42.08243
G0 F9000 X128.68 Y131.23
G1 F1800 X131.18 Y133.73 E42.25886
G0 F9000 X131.45 Y134.56
G1 F1800 X128.49 Y131.60 E42.46753
G0 F9000 X128.25 Y131.93
G1 F1800 X131.51 Y135.19 E42.69775
G0 F9000 X131.58 Y135.82
G1 F1800 X128.01 Y132.25 E42.94942
G0 F9000 X127.72 Y132.53
G1 F1800 X131.65 Y136.45 E43.22660
G0 F9000 X131.71 Y137.09
G1 F1800 X127.39 Y132.76 E43.53161
G0 F9000 X127.06 Y133.00
G1 F1800 X131.74 Y137.68 E43.86142
G0 F9000 X131.68 Y138.19
G1 F1800 X126.66 Y133.16 E44.21589
G0 F9000 X126.23 Y133.30
G1 F1800 X131.63 Y138.70 E44.59668
G0 F9000 X131.57 Y139.21
G1 F1800 X125.79 Y133.42 E45.00512
G0 F9000 X125.22 Y133.42
G1 F1800 X131.52 Y139.72 E45.44969
G0 F9000 X131.47 Y140.24
G1 F1800 X124.64 Y133.41 E45.93155
G0 F9000 X123.80 Y133.13
G1 F1800 X131.37 Y140.70 E46.46544
G0 F9000 X131.23 Y141.13
G1 F1800 X123.12 Y133.02 E47.03751
